X: 31685
T: Parting, The
R: waltz
M: 3/4
K: Gmajor
|:B2- Bc dc|B/c/B G2 GF|E2 CD E/F/G|ED B,D G,2|
G2- GF GA|B/c/B A2 G2|F2- F2 G2|A2- AB cA|
B2- Bc dc|B/c/B G2 GF|E2 CD E/F/G|ED B,D G,2|
G2- GF GB|A/B/A E2- EF|G2- G2 GF|1 G2 d2- dc:|2 G2- G2- G2||
K: Gmin
|:B2- B2 cB|A/B/A F2- F2|D2- DC DF|A,/B,/A, G,2- G,2|
G2- GA BA|GF DC D^c|d2 A2 Bc|BA G2- G2|
B2- B2 cB|A/B/A F2- F2|D2- DC DF|A,/B,/A, G,2- G,2|
G2- GA BA|GF DC DF|G2- G2 G^F|1 G2- G2- G2:|2 G2 d2- dc||

